dist/img/icons/pintress.svg

<svg width="28" height="28" viewBox="0 0 28 28" fill="none" xmlns="http://www.w3.org/2000/svg">
<path d="M10.0533 26.7201C11.3333 27.1068 12.6267 27.3334 14 27.3334C17.5362 27.3334 20.9276 25.9287 23.4281 23.4282C25.9286 20.9277 27.3333 17.5363 27.3333 14.0001C27.3333 12.2491 26.9885 10.5153 26.3184 8.89764C25.6483 7.27996 24.6662 5.81011 23.4281 4.57199C22.19 3.33388 20.7201 2.35175 19.1025 1.68169C17.4848 1.01163 15.751 0.666748 14 0.666748C12.249 0.666748 10.5152 1.01163 8.89756 1.68169C7.27989 2.35175 5.81003 3.33388 4.57192 4.57199C2.07143 7.07248 0.666672 10.4639 0.666672 14.0001C0.666672 19.6668 4.22667 24.5334 9.25334 26.4534C9.13334 25.4134 9.01334 23.6934 9.25334 22.5068L10.7867 15.9201C10.7867 15.9201 10.4 15.1468 10.4 13.9201C10.4 12.0801 11.5467 10.7067 12.8533 10.7067C14 10.7067 14.5333 11.5468 14.5333 12.6268C14.5333 13.7734 13.7733 15.4134 13.3867 16.9868C13.16 18.2934 14.08 19.4401 15.4133 19.4401C17.7867 19.4401 19.6267 16.9068 19.6267 13.3334C19.6267 10.1334 17.3333 7.94675 14.04 7.94675C10.28 7.94675 8.06667 10.7468 8.06667 13.6934C8.06667 14.8401 8.44001 16.0001 9.05334 16.7601C9.17334 16.8401 9.17334 16.9468 9.13334 17.1468L8.74667 18.6001C8.74667 18.8268 8.60001 18.9068 8.37334 18.7468C6.66667 18.0001 5.68001 15.5734 5.68001 13.6134C5.68001 9.40008 8.66667 5.57342 14.4267 5.57342C19.0133 5.57342 22.5867 8.86675 22.5867 13.2401C22.5867 17.8268 19.7467 21.5068 15.68 21.5068C14.3867 21.5068 13.12 20.8134 12.6667 20.0001L11.7733 23.1601C11.4667 24.3068 10.6267 25.8401 10.0533 26.7601V26.7201Z" fill="white"/>
</svg>

<svg width="28" height="28" fill="none" xmlns="http://www.w3.org/2000/svg"><path d="M10.053 26.72c1.28.387 2.574.613 3.947.613A13.333 13.333 0 10.667 14c0 5.667 3.56 10.533 8.586 12.453-.12-1.04-.24-2.76 0-3.946l1.534-6.587s-.387-.773-.387-2c0-1.84 1.147-3.213 2.453-3.213 1.147 0 1.68.84 1.68 1.92 0 1.146-.76 2.786-1.146 4.36-.227 1.306.693 2.453 2.026 2.453 2.374 0 4.214-2.533 4.214-6.107 0-3.2-2.294-5.386-5.587-5.386-3.76 0-5.973 2.8-5.973 5.746 0 1.147.373 2.307.986 3.067.12.08.12.187.08.387L8.747 18.6c0 .227-.147.307-.374.147C6.667 18 5.68 15.573 5.68 13.613c0-4.213 2.987-8.04 8.747-8.04 4.586 0 8.16 3.294 8.16 7.667 0 4.587-2.84 8.267-6.907 8.267-1.293 0-2.56-.694-3.013-1.507l-.894 3.16c-.306 1.147-1.146 2.68-1.72 3.6v-.04z" fill="#fff"/></svg>
